X:7
T:Drunken Landlady
R:Reel
M:C|
L:1/8
K:E Dorian
|:FA | "Em" BE ~E2 BAFA |"Em"BE ~E2 BAFA |"D" ABAF D2 FD |FA A2 BAFA |!
"B7" BE ~E2 BAFA |"Em"BE E2 "A7"BAFA |"D" A2 Bc dfec |"D"dBAF "B7" E2 :|!
|:FA | "Em" Beed ~e2 de |"Em" ~f2 df "A7"efdB |"D" ABAF D2FD |"D" FAA2 "B7"BAFA |!
"Em" Beed ~e2 de |"Em" ~f2 df "A7"efdB |"D" A2 Bc dfec |"D"dBAF "Em"E2 :|

